src/assets/images/template_image/5.svg

<svg width="48" height="48" viewBox="0 0 48 48" fill="none" xmlns="http://www.w3.org/2000/svg"><path opacity=".2" d="M24 46C36.1503 46 46 36.1503 46 24 46 11.8497 36.1503 2 24 2 11.8497 2 2 11.8497 2 24 2 36.1503 11.8497 46 24 46z" fill="#659ef1"/><path d="M35.5315 12.4681C34.9073 11.8439 33.8916 11.844 33.2673 12.4682L26.8889 18.8467 23.0974 15.0553C22.1371 14.0949 20.5799 14.0949 19.6195 15.0553L16.8889 17.7858 17.2294 18.1262 12.5091 21.1486C12.2273 21.3291 12.0425 21.6275 12.0064 21.9601 11.9704 22.2928 12.0871 22.6239 12.3237 22.8605L25.1392 35.6761C25.3475 35.8844 25.629 35.9997 25.9204 35.9997 25.9599 35.9997 25.9997 35.9975 26.0395 35.9933 26.3721 35.9573 26.6705 35.7725 26.8509 35.4906L29.8733 30.7703 30.2138 31.1107 32.9443 28.3801C33.9047 27.4198 33.9047 25.8626 32.9442 24.9021L29.1529 21.1108 35.5314 14.7323C36.1557 14.108 36.1557 13.0924 35.5315 12.4681zM25.7306 33.1423 23.5358 30.9474 25.6904 27.7351 22.478 29.8897 20.6307 28.0425 22.0025 25.9973 19.9573 27.3691 17.862 25.2737 19.5265 22.792 17.0449 24.4565 14.8575 22.2691 18.8292 19.726 28.2738 29.1706 25.7306 33.1423z" fill="#659ef1"/></svg>

<svg width="48" height="48" fill="none" xmlns="http://www.w3.org/2000/svg"><path opacity=".2" d="M24 46c12.15 0 22-9.85 22-22S36.15 2 24 2 2 11.85 2 24s9.85 22 22 22z" fill="#659ef1"/><path d="M35.532 12.468a1.603 1.603 0 00-2.265 0l-6.378 6.379-3.792-3.792a2.46 2.46 0 00-3.478 0l-2.73 2.73.34.341-4.72 3.023a1.105 1.105 0 00-.185 1.711l12.815 12.816a1.105 1.105 0 001.712-.185l3.022-4.72.34.34 2.731-2.73a2.46 2.46 0 000-3.479l-3.791-3.791 6.378-6.379a1.603 1.603 0 000-2.264zM25.73 33.142l-2.195-2.195 2.154-3.212-3.212 2.155-1.847-1.848 1.372-2.045-2.046 1.372-2.095-2.095 1.665-2.482-2.482 1.664-2.188-2.187 3.972-2.543 9.445 9.445-2.543 3.971z" fill="#659ef1"/></svg>
